X: 1
T: Lady Anne Montgomery
T: New England Version
C: Repeat the A part 4 times
L: 1/8
M: 4/4
K: D
|: DE | "D"FDAD FDAD | "(Bm)"BAdA "G"B2Bc | "D"dBAF "A"E2 FE | "D"DB,A,B, D2 :|
|: de | "D"f4 fede | fedB ABde | f4 fede | "G"fgaf "A"e2de |
        "D"f4 fede | fedB ABde | fdec d2BA | "A"FDEC "D"D2 :|

